icons/MoreStations.svg

<svg xmlns="http://www.w3.org/2000/svg" viewBox="0 0 24 24">
  <path d="M11 13v5H6v-5h5zm7 0v5h-5v-5h5zm-7-7v5H6V6h5zm7 0v5h-5V6h5z"/>
</svg>

<svg width="24" height="24" viewBox="0 0 24 24" fill="none" xmlns="http://www.w3.org/2000/svg">
<path fill-rule="evenodd" clip-rule="evenodd" d="M11 13V18H6V13H11ZM18 13V18H13V13H18ZM11 6V11H6V6H11ZM18 6V11H13V6H18Z" fill="black"/>
</svg>
